X:42
T:Peeler's Jacket
S:Trad, arr. Paddy O'Brien 
R:reel
E:9
I:speed 350
M:C|
K:G
F|:~G2 BG DGBG|FGAB ~c2Bc|dggf ~d2eg|fdcA BGAF|\
~G2 BG DGBG|FGAB ~c2Bc|dggf ~d2eg|fdcA BG G2:|\
gagf ~d2 ef|gfga bgaf|gagf ~d2 eg|fdcA BGG2|\
gagf ~d2 ef|gfga bgaf|gbag fdeg|1 fdcA BGG2:|2 fdcA BcAF:|**


\vfill\eject

